Sources/FrostedUI/Resources/Icons.xcassets/sealCheckmark12.imageset/seal-checkmark-12.svg

<svg width="12" height="12" viewBox="0 0 12 12" fill="none" xmlns="http://www.w3.org/2000/svg" data-fui-icon="true">
  <g clip-path="url(#clip0_882_1094)">
    <path
      d="M6.13379 0.00390625C6.79851 0.0418031 7.38728 0.359786 7.78516 0.837891C7.89885 0.974527 7.98606 1.03768 8.0459 1.0625C8.10364 1.08639 8.20581 1.10278 8.38574 1.08594C9.04816 1.02395 9.73623 1.24619 10.2461 1.75586L10.3379 1.85352C10.7813 2.35059 10.9729 2.99196 10.916 3.61133C10.8993 3.79263 10.916 3.89638 10.9404 3.95508C10.9656 4.01559 11.0291 4.10332 11.166 4.21777C11.6738 4.64235 12 5.28271 12 6L11.9961 6.13379C11.9584 6.79535 11.6428 7.38096 11.1689 7.77832C11.0313 7.89376 10.9671 7.98221 10.9414 8.04395C10.9165 8.10407 10.8993 8.20928 10.916 8.39258C10.9724 9.01169 10.7809 9.65281 10.3379 10.1494L10.2461 10.2471C9.73639 10.7566 9.04918 10.9777 8.3877 10.916C8.20662 10.8991 8.10352 10.9162 8.04492 10.9404C7.984 10.9657 7.89574 11.0291 7.78125 11.166C7.38365 11.6416 6.79665 11.9583 6.13379 11.9961L6 12C5.27994 12 4.63744 11.6713 4.21289 11.1602C4.10086 11.0253 4.01495 10.9631 3.95605 10.9385C3.90016 10.9152 3.79969 10.8982 3.62207 10.915C3.00079 10.9738 2.35631 10.7836 1.85742 10.3389L1.75977 10.2461C1.25207 9.73802 1.02995 9.05303 1.08984 8.39258C1.10634 8.21089 1.08879 8.10754 1.06445 8.04883C1.03893 7.9875 0.974864 7.89909 0.836914 7.78418C0.35947 7.38652 0.041775 6.79815 0.00390625 6.13379L0 6C0 5.27908 0.329572 4.63549 0.841797 4.21094C0.978412 4.09765 1.04086 4.01127 1.06543 3.95215C1.08941 3.89438 1.10626 3.79237 1.08984 3.61328C1.02911 2.95225 1.25128 2.26567 1.75977 1.75684L1.85742 1.66406C2.35654 1.21905 3.00186 1.02785 3.62402 1.08691C3.79977 1.10359 3.89895 1.08728 3.9541 1.06445C4.0119 1.04039 4.09766 0.97841 4.20898 0.84375C4.63374 0.330057 5.27812 0 6 0L6.13379 0.00390625ZM6 1.5C5.74493 1.5 5.51778 1.61532 5.36523 1.7998C5.17779 2.02654 4.90633 2.29303 4.53125 2.44922C4.15331 2.60658 3.77315 2.60766 3.48242 2.58008C3.27322 2.56022 3.06112 2.61907 2.89062 2.75488L2.82031 2.81738C2.64104 2.99689 2.56214 3.2379 2.58398 3.47559C2.61077 3.76713 2.60846 4.14842 2.45117 4.52734C2.29439 4.905 2.02608 5.17785 1.79883 5.36621C1.61475 5.51878 1.5 5.7456 1.5 6L1.50488 6.09375C1.5292 6.30837 1.63678 6.4974 1.79688 6.63086C2.02419 6.82019 2.29201 7.0942 2.44922 7.47168C2.60769 7.85247 2.60951 8.23632 2.58301 8.52832C2.5616 8.7655 2.64118 9.00617 2.82031 9.18555L2.89062 9.24805C3.0605 9.38327 3.27152 9.44156 3.48047 9.42188C3.77201 9.39429 4.15409 9.39573 4.5332 9.55371C4.9077 9.70984 5.17932 9.97597 5.36719 10.2021C5.51977 10.3856 5.7461 10.5 6 10.5L6.09375 10.4951C6.30786 10.4709 6.49644 10.3636 6.62988 10.2041C6.81916 9.97769 7.09315 9.71101 7.46973 9.55469C7.8509 9.39656 8.23472 9.39555 8.52734 9.42285C8.76545 9.44493 9.00633 9.36562 9.18555 9.18652L9.24805 9.11621C9.3828 8.94698 9.44078 8.73709 9.42188 8.5293C9.39518 8.23641 9.39758 7.85245 9.55566 7.4707C9.71208 7.09322 9.97875 6.81868 10.2051 6.62891C10.3872 6.47619 10.5 6.25158 10.5 6C10.5 5.74708 10.3867 5.52087 10.2041 5.36816C9.97819 5.17933 9.71103 4.90662 9.55469 4.53027C9.3967 4.14981 9.39499 3.76701 9.42188 3.47461C9.44103 3.2665 9.3828 3.05601 9.24805 2.88672L9.18555 2.81641C9.00569 2.63668 8.7637 2.55778 8.52539 2.58008C8.23349 2.60738 7.85087 2.60495 7.4707 2.44727C7.09397 2.29087 6.82056 2.02465 6.63184 1.79785C6.49833 1.63741 6.30895 1.52925 6.09375 1.50488L6 1.5ZM7.34863 3.96777C7.64156 3.67532 8.11643 3.67503 8.40918 3.96777C8.70188 4.26052 8.70162 4.73541 8.40918 5.02832L5.40918 8.02832C5.1163 8.3212 4.64153 8.32117 4.34863 8.02832L3.22363 6.90332C2.93074 6.61043 2.93074 6.13567 3.22363 5.84277C3.51656 5.55032 3.99143 5.55003 4.28418 5.84277L4.87891 6.4375L7.34863 3.96777Z"
      fill="currentColor"
    />
  </g>
  <defs>
    <clipPath id="clip0_882_1094"><path fill="currentColor" d="M0 0H12V12H0z" /></clipPath>
  </defs>
</svg>

<svg xmlns="http://www.w3.org/2000/svg" width="12" height="12" fill="none" data-fui-icon="true" viewBox="0 0 12 12"><g clip-path="url(#a)"><path fill="currentColor" d="M6.134.004a2.32 2.32 0 0 1 1.651.834c.114.137.201.2.26.225.059.023.16.04.34.023a2.32 2.32 0 0 1 1.861.67l.092.098c.443.497.635 1.138.578 1.757-.017.182 0 .285.024.344.026.06.09.148.226.263C11.674 4.642 12 5.283 12 6l-.004.134a2.32 2.32 0 0 1-.827 1.644c-.138.116-.202.204-.228.266-.025.06-.042.165-.025.349a2.32 2.32 0 0 1-.578 1.756l-.092.098c-.51.51-1.197.73-1.858.669-.181-.017-.284 0-.343.024-.061.026-.15.09-.264.226a2.32 2.32 0 0 1-1.647.83L6 12c-.72 0-1.363-.329-1.787-.84-.112-.135-.198-.197-.257-.222-.056-.023-.156-.04-.334-.023a2.32 2.32 0 0 1-1.765-.576l-.097-.093a2.32 2.32 0 0 1-.67-1.853c.016-.182-.001-.285-.026-.344-.025-.061-.09-.15-.227-.265a2.32 2.32 0 0 1-.833-1.65L0 6c0-.72.33-1.365.842-1.79.136-.112.199-.199.223-.258s.041-.16.025-.339a2.32 2.32 0 0 1 .67-1.856l.097-.093a2.32 2.32 0 0 1 1.767-.577c.176.017.275 0 .33-.023.058-.024.144-.086.255-.22A2.32 2.32 0 0 1 6 0zM6 1.5a.82.82 0 0 0-.635.3c-.187.227-.459.493-.834.65-.378.157-.758.158-1.049.13a.82.82 0 0 0-.591.175l-.07.062a.82.82 0 0 0-.237.659c.027.291.024.672-.133 1.051s-.425.65-.652.84A.82.82 0 0 0 1.5 6l.005.094a.82.82 0 0 0 .292.537c.227.19.495.463.652.84.159.381.16.765.134 1.057a.82.82 0 0 0 .237.658l.07.062a.82.82 0 0 0 .59.174c.292-.028.674-.026 1.053.132.375.156.646.422.834.648A.82.82 0 0 0 6 10.5l.094-.005a.82.82 0 0 0 .536-.29c.19-.227.463-.494.84-.65.38-.158.765-.16 1.057-.132a.82.82 0 0 0 .659-.236l.062-.07a.82.82 0 0 0 .174-.588c-.027-.293-.024-.677.134-1.058.156-.378.423-.652.65-.842a.82.82 0 0 0-.001-1.26c-.227-.19-.494-.462-.65-.839-.158-.38-.16-.763-.133-1.055a.82.82 0 0 0-.174-.588l-.062-.07a.82.82 0 0 0-.66-.237c-.293.027-.675.025-1.055-.133-.377-.156-.65-.422-.84-.65a.82.82 0 0 0-.537-.292zm1.349 2.468a.75.75 0 0 1 1.06 1.06l-3 3a.75.75 0 0 1-1.06 0L3.224 6.903a.75.75 0 1 1 1.06-1.06l.595.595z"/></g><defs><clipPath id="a"><path fill="currentColor" d="M0 0h12v12H0z"/></clipPath></defs></svg>
